X:79
T:Bridge of Perth
R:Reel
C:Daniel Dow
B:The Athole Collection
M:C|
L:1/8
K:A
c|:A/B/c/d/ ed cAed|cAeg ae c2|A/B/c/d/ ed deA=c|B=GGB =gd ~B2:|
|:Aaga eaca|eacf eA c2|eaga eaca|B=gdg d=G ~B2:|

